X:1
T: Ballochmyle Brig
C:A. McAlpine
R:Strathspey
Q:128
K:A
M:4/4
L:1/16
|:E4 E3F EC3 CE3|Ac3 B3A FA3 EC3|F4 F3G F3E CE3|FA3 GB3 A4 Ac3|
E4 E3F EC3 CE3|Ac3 B3A FA3 EC3|F4 F3G F3E CE3|FA3 GB3 A4A,4|
ce3 d3c B3A GB3|((3A2c2e2) a3c' a3e cA3|d3f b3c' a'3c' b3a|g3a g3f ((3e2f2e2) ((3d2c2B2) |
ec3 a3e d3c B3A|fd3 b3a g3e d3B|ec3 a3e fd3 b3a|((3g2f2e2) ((3d2c2B2) A4A4:|
